!!!!SEGMENT: pl-wtm--r-1350--013_stefani-jozef--fraszka-muzyczna-moderato.krn
!!!cenid: 18xx:1862
!!!COM: Stefani, Józef
!!!COM-rismID:
!!!CDT: 1800/04/16-1876/03/19
!!!CNT: Polish
!!!GTL: Fraszka muzyczna
!!!OTL: Moderato
!!!PDT:
!!!AGN: Secular
!!!SMS-siglum: PL-Wtm
!!!SMS-shelfmark: R 1350
!!!SMS-shelfwork: 013 G
!!!SMS-variant:
!!!SMS-altvar:
!!!NIFC-rismSourceID: 1001119477
!!!NIFC-islandoraID: pl-wtm:25286
!!!URL-pdf-islandora: https://repozytorium.nifc.pl/islandora/object/pl-wtm%3A25286/datastream/PDF/view
!!!URL-scan: https://polish.musicsources.pl/pl/lokalizacje/galeria/rekopisy/6202 @EN{Scan on Polish Music Herritage in Open Access Website} @PL{Skany w portalu Dziedzictwo Muzyki Polskiej w otwartym dostępie}
!!!ONB-nifc: UWAGA: skan 0007
!!!AIN: 2 forte
!!!key:
**kern	**kern	**dynam
*part2	*part1	*part1
*staff2	*staff1	*
*Iforte	*Iforte	*
*I"Fortepiano	*I"Fortepiano	*
*I'pf	*I'pf	*
*clefG2	*clefG2	*
*k[b-e-a-]	*k[b-e-a-]	*
*c:	*c:	*
*M2/2	*M2/2	*
*met(c|)	*met(c|)	*
=1	=1	=1
!	!LO:TX:i:a:t=Moderato.	!LO:DY:b:t=p.
!	!LO:TX:a:t=P:all\right:problem	!
4c/	4r	p
!	!LO:TX:i:b:t=ręce w miejscu	!
4r	4cc\	.
4e-/	4r	.
4r	4ee-\	.
=2	=2	=2
4c/	4r	.
4r	4cc\	.
4e-/	4r	.
4r	4ee-\	.
=3	=3	=3
4d/	4r	.
4r	4dd\	.
4f/	4r	.
4r	4ff\	.
!!LO:LB:g=original
=4	=4	=4
4d/	4r	.
4r	4dd\	.
4f/	4r	.
4r	4ff\	.
=5	=5	=5
4e-/	4r	.
4r	4ee-\	.
4d/	4r	.
4r	4dd\	.
=6	=6	=6
4c/	4r	.
4r	4cc\	.
4e-/	4r	.
4r	4ee-\	.
=7	=7	=7
4r	4r	.
4d/	4dd\	.
4r	4r	.
4d/	4dd\	.
!!LO:PB:g=original
=8	=8	=8
4g/	4gg\	.
4f/	4ff\	.
4e-/	4ee-\	.
4d/	4dd\	.
=9	=9	=9
4c/	4r	.
4r	4cc\	.
4e-/	4r	.
4r	4ee-\	.
=10	=10	=10
4c/	4r	.
4r	4cc\	.
4e-/	4r	.
4r	4ee-\	.
=11	=11	=11
4d/	4r	.
4r	4dd\	.
4f/	4r	.
4r	4ff\	.
!!LO:LB:g=original
=12	=12	=12
4d/	4r	.
4r	4dd\	.
4f/	4r	.
4r	4ff\	.
=13	=13	=13
4e-/	4r	.
4r	4ee-\	.
4c/	4r	.
4r	4cc\	.
=14	=14	=14
4d/	4r	.
4r	4dd\	.
4g/	4r	.
4r	4gg\	.
=15	=15	=15
4c/	4r	.
4r	4cc\	.
4e-/	4r	.
4r	4ee-\	.
=16	=16	=16
4c/	4cc\	.
4r	4r	.
2r	2r	.
==	==	==
*-	*-	*-
!!!system-decoration: {(s1,s2)}
!!!RDF**kern: > = above
!!!RDF**kern: < = below
!!!EED: Antoni Szymański
!!!EEV: 2021-05-04
!!!ENC: Krzysztof Stępień
!!!END: 2021-04-10
